svgs/duotone/building-ngo.svg

<svg xmlns="http://www.w3.org/2000/svg" viewBox="0 0 384 512"><!--! Font Awesome Pro 6.3.0 by @fontawesome - https://fontawesome.com License - https://fontawesome.com/license (Commercial License) Copyright 2023 Fonticons, Inc. --><defs><style>.fa-secondary{opacity:.4}</style></defs><path class="fa-primary" d="M96 123.2V80C96 71.16 103.2 64 112 64C120.8 64 128 71.16 128 80V176C128 183.1 123.4 189.3 116.6 191.3C109.9 193.4 102.6 190.7 98.69 184.9L64 132.8V176C64 184.8 56.84 192 48 192C39.16 192 32 184.8 32 176V80C32 72.95 36.62 66.73 43.36 64.69C50.11 62.64 57.4 65.26 61.31 71.13L96 123.2zM152 80C152 71.16 159.2 64 168 64H216C224.8 64 232 71.16 232 80C232 88.84 224.8 96 216 96H184V160H200V144C200 135.2 207.2 128 216 128C224.8 128 232 135.2 232 144V168C232 181.3 221.3 192 208 192H176C162.7 192 152 181.3 152 168V80zM256 112C256 85.49 277.5 64 304 64C330.5 64 352 85.49 352 112V144C352 170.5 330.5 192 304 192C277.5 192 256 170.5 256 144V112zM304 96C295.2 96 288 103.2 288 112V144C288 152.8 295.2 160 304 160C312.8 160 320 152.8 320 144V112C320 103.2 312.8 96 304 96V96z"/><path class="fa-secondary" d="M320 112V144C320 152.8 312.8 160 304 160C295.2 160 288 152.8 288 144V112C288 103.2 295.2 96 304 96C312.8 96 320 103.2 320 112zM336 0C362.5 0 384 21.49 384 48V464C384 490.5 362.5 512 336 512H240V432C240 405.5 218.5 384 192 384C165.5 384 144 405.5 144 432V512H48C21.49 512 0 490.5 0 464V48C0 21.49 21.49 0 48 0H336zM64 272C64 280.8 71.16 288 80 288H112C120.8 288 128 280.8 128 272V240C128 231.2 120.8 224 112 224H80C71.16 224 64 231.2 64 240V272zM176 224C167.2 224 160 231.2 160 240V272C160 280.8 167.2 288 176 288H208C216.8 288 224 280.8 224 272V240C224 231.2 216.8 224 208 224H176zM256 272C256 280.8 263.2 288 272 288H304C312.8 288 320 280.8 320 272V240C320 231.2 312.8 224 304 224H272C263.2 224 256 231.2 256 240V272zM168 64C159.2 64 152 71.16 152 80V168C152 181.3 162.7 192 176 192H208C221.3 192 232 181.3 232 168V144C232 135.2 224.8 128 216 128C207.2 128 200 135.2 200 144V160H184V96H216C224.8 96 232 88.84 232 80C232 71.16 224.8 64 216 64H168zM256 144C256 170.5 277.5 192 304 192C330.5 192 352 170.5 352 144V112C352 85.49 330.5 64 304 64C277.5 64 256 85.49 256 112V144zM61.31 71.12C57.4 65.26 50.11 62.64 43.36 64.69C36.62 66.73 32 72.95 32 80V176C32 184.8 39.16 192 48 192C56.84 192 64 184.8 64 176V132.8L98.69 184.9C102.6 190.7 109.9 193.4 116.6 191.3C123.4 189.3 128 183.1 128 176V80C128 71.16 120.8 64 112 64C103.2 64 96 71.16 96 80V123.2L61.31 71.12z"/></svg>

<svg xmlns="http://www.w3.org/2000/svg" viewBox="0 0 384 512"><!--! Font Awesome Pro 6.4.0 by @fontawesome - https://fontawesome.com License - https://fontawesome.com/license (Commercial License) Copyright 2023 Fonticons, Inc. --><defs><style>.fa-secondary{opacity:.4}</style></defs><path class="fa-primary" d="M61.3 71.1c-3.9-5.9-11.2-8.5-17.9-6.4S32 72.9 32 80v96c0 8.8 7.2 16 16 16s16-7.2 16-16V132.8l34.7 52c3.9 5.9 11.2 8.5 17.9 6.4s11.4-8.3 11.4-15.3V80c0-8.8-7.2-16-16-16s-16 7.2-16 16v43.2l-34.7-52zM152 80v88c0 13.3 10.7 24 24 24h32c13.3 0 24-10.7 24-24V144c0-8.8-7.2-16-16-16s-16 7.2-16 16v16H184V96h32c8.8 0 16-7.2 16-16s-7.2-16-16-16H168c-8.8 0-16 7.2-16 16zM304 96c8.8 0 16 7.2 16 16v32c0 8.8-7.2 16-16 16s-16-7.2-16-16V112c0-8.8 7.2-16 16-16zm-48 16v32c0 26.5 21.5 48 48 48s48-21.5 48-48V112c0-26.5-21.5-48-48-48s-48 21.5-48 48z"/><path class="fa-secondary" d="M48 0C21.5 0 0 21.5 0 48V464c0 26.5 21.5 48 48 48h96V432c0-26.5 21.5-48 48-48s48 21.5 48 48v80h96c26.5 0 48-21.5 48-48V48c0-26.5-21.5-48-48-48H48zM64 240c0-8.8 7.2-16 16-16h32c8.8 0 16 7.2 16 16v32c0 8.8-7.2 16-16 16H80c-8.8 0-16-7.2-16-16V240zm112-16h32c8.8 0 16 7.2 16 16v32c0 8.8-7.2 16-16 16H176c-8.8 0-16-7.2-16-16V240c0-8.8 7.2-16 16-16zm80 16c0-8.8 7.2-16 16-16h32c8.8 0 16 7.2 16 16v32c0 8.8-7.2 16-16 16H272c-8.8 0-16-7.2-16-16V240zM168 64h48c8.8 0 16 7.2 16 16s-7.2 16-16 16H184v64h16V144c0-8.8 7.2-16 16-16s16 7.2 16 16v24c0 13.3-10.7 24-24 24H176c-13.3 0-24-10.7-24-24V80c0-8.8 7.2-16 16-16zM304 96c-8.8 0-16 7.2-16 16v32c0 8.8 7.2 16 16 16s16-7.2 16-16V112c0-8.8-7.2-16-16-16zm-48 16c0-26.5 21.5-48 48-48s48 21.5 48 48v32c0 26.5-21.5 48-48 48s-48-21.5-48-48V112zM61.3 71.1l34.7 52V80c0-8.8 7.2-16 16-16s16 7.2 16 16v96c0 7.1-4.6 13.3-11.4 15.3s-14-.6-17.9-6.4L64 132.8V176c0 8.8-7.2 16-16 16s-16-7.2-16-16V80c0-7.1 4.6-13.3 11.4-15.3s14 .6 17.9 6.4z"/></svg>
